img/svg/stone_pattern_green2.svg

<svg width="600" height="623" viewBox="0 0 600 623" fill="none" xmlns="http://www.w3.org/2000/svg">
<path opacity="0.05" fill-rule="evenodd" clip-rule="evenodd" d="M262.462 22.3316C322.315 12.2521 393.111 -20.1193 440.048 18.363C487.384 57.1733 447.611 138.619 472.504 194.541C502.6 262.151 618.742 300.752 597.275 371.575C575.987 441.804 455.072 403.049 396.075 446.69C336.125 491.035 334.863 601.388 262.462 619.237C191.811 636.655 114.664 584.808 70.5435 526.942C30.1217 473.927 57.2931 399.018 44.6464 333.561C34.2469 279.735 -12.5885 231.048 3.23373 178.56C19.1098 125.893 76.4836 100.049 123.596 71.6555C166.724 45.6641 212.808 30.6938 262.462 22.3316Z" fill="#264653"/>
</svg>

<svg xmlns="http://www.w3.org/2000/svg" width="600" height="623" fill="none" xmlns:v="https://vecta.io/nano"><path opacity=".05" fill-rule="evenodd" d="M262.462 22.332c59.853-10.08 130.649-42.451 177.586-3.969 47.336 38.81 7.563 120.256 32.456 176.178 30.096 67.61 146.238 106.211 124.771 177.034-21.288 70.229-142.203 31.474-201.2 75.115-59.95 44.345-61.212 154.698-133.613 172.547-70.651 17.418-147.798-34.429-191.918-92.295-40.422-53.015-13.25-127.924-25.897-193.381-10.4-53.826-57.235-102.513-41.413-155.001 15.876-52.667 73.25-78.511 120.362-106.904 43.128-25.991 89.212-40.962 138.866-49.324z" fill="#264653"/></svg>
